src/assets/img/paint-format.svg

<!-- Generated by IcoMoon.io -->
<svg version="1.1" xmlns="http://www.w3.org/2000/svg" width="32" height="32" viewBox="0 0 32 32">
<title>paint-format</title>
<path fill="#fff" d="M32 18v-12h-6v-2c0-1.1-0.9-2-2-2h-22c-1.1 0-2 0.9-2 2v6c0 1.1 0.9 2 2 2h22c1.1 0 2-0.9 2-2v-2h4v8h-18v4h-1c-0.552 0-1 0.448-1 1v10c0 0.552 0.448 1 1 1h4c0.552 0 1-0.448 1-1v-10c0-0.552-0.448-1-1-1h-1v-2h18zM24 6h-22v-2h22v2z"></path>
</svg>

<svg xmlns="http://www.w3.org/2000/svg" width="32" height="32"><path fill="#fff" d="M32 18V6h-6V4c0-1.1-.9-2-2-2H2C.9 2 0 2.9 0 4v6c0 1.1.9 2 2 2h22c1.1 0 2-.9 2-2V8h4v8H12v4h-1a1 1 0 0 0-1 1v10a1 1 0 0 0 1 1h4a1 1 0 0 0 1-1V21a1 1 0 0 0-1-1h-1v-2h18zM24 6H2V4h22v2z"/></svg>
